X:1
T: The Little Bag of Potatoes
C:
R:Reel
Q: 232
K:D
M:4/4
L:1/8
|:d2 df ed BA|Bd ef e2 de|fa af g2 fe|fe dB A2 AB|
d2 df ed BA|Bd ef e2 de|fa af g2 fe|fe dB A2 AB|
fd ad fd dd|fa af g2 fe|fa ae fd dd|fe dB A2 AB|
fd ad fd dd|fa af g2 fe|fa aa b2 ba|g2 fe g2 fe:|
